X: 36474
T: Sega
R: jig
M: 6/8
K: Gmajor
|:cBA|"G"B2c "D7" A2B|"G"G3 B2A|"G" G2A B2c|"G" dcB "D7"A3|
"G"B2c "D7" A2B|"G"G3 "C"e3|"D7" ded cBA|"G" G3:|
|:cBA|"G" d2g gfg|"C"c2e ede|"G"ded BAG|"D" A3 B2c|
"G"dBd g2g|"C"ece g2g|"D"ded cBA|"G" G3:|
|:cBA|"G" G2A B2c|"G"d3 B2c|"C"ec2 ece|"G"d3 d2d|
"C" e c2 ece|"G" d3 B2c|"D" ded cBA|"G"G3:|!

